src/assets/trash.svg

<svg width="15" height="22" viewBox="0 0 15 22" fill="none" xmlns="http://www.w3.org/2000/svg">
<path fill-rule="evenodd" clip-rule="evenodd" d="M5.5 4.5C5.22386 4.5 5 4.72386 5 5C5 5.27614 5.22386 5.5 5.5 5.5H9.5C9.77614 5.5 10 5.27614 10 5C10 4.72386 9.77614 4.5 9.5 4.5H5.5ZM3 7C3 6.72386 3.22386 6.5 3.5 6.5H5H10H11.5C11.7761 6.5 12 6.72386 12 7C12 7.27614 11.7761 7.5 11.5 7.5H11V15.5C11 16.0523 10.5523 16.5 10 16.5H5C4.44772 16.5 4 16.0523 4 15.5V7.5L3.5 7.5C3.22386 7.5 3 7.27614 3 7ZM5 7.5H10V15.5H5V7.5Z" fill="#131D16"/>
</svg>

<svg xmlns="http://www.w3.org/2000/svg" width="15" height="22" fill="none" viewBox="0 0 15 22">
    <path fill="#131D16" fill-rule="evenodd" d="M5.5 4.5a.5.5 0 0 0 0 1h4a.5.5 0 0 0 0-1h-4ZM3 7a.5.5 0 0 1 .5-.5h8a.5.5 0 0 1 0 1H11v8a1 1 0 0 1-1 1H5a1 1 0 0 1-1-1v-8h-.5A.5.5 0 0 1 3 7Zm2 .5h5v8H5v-8Z" clip-rule="evenodd" />
</svg>
